lib/brands/icons/jsfiddle.svg

<svg xmlns="http://www.w3.org/2000/svg" fill="none" aria-hidden="true" viewBox="0 0 48 48"><g id="jsfiddle-Icon"><path id="Vector" fill="#4679A4" fill-rule="evenodd" d="M37.6326 22.8753C37.6455 22.6648 37.6645 22.4561 37.6645 22.2428C37.6645 16.4181 32.8698 11.6962 26.9547 11.6962C22.6894 11.6962 19.0174 14.157 17.2949 17.7105C16.4591 17.0725 15.4129 16.6888 14.2745 16.6888C11.5458 16.6888 9.33387 18.867 9.33387 21.5538C9.33387 22.0587 9.41134 22.5463 9.55716 23.0038C7.42997 24.2497 6 26.5282 6 29.1421C6 33.0501 9.18714 36.2199 13.1417 36.2801L13.2255 36.2847L13.2547 36.2856L13.2838 36.2847H34.5229C34.6524 36.2909 34.779 36.3038 34.9103 36.3038C38.8256 36.3038 42 33.1786 42 29.3225C42 26.4161 40.1964 23.9271 37.6326 22.8753ZM15.6644 30.9029C14.9453 30.2521 14.4978 29.4628 14.3183 28.5333C14.259 28.2225 14.229 27.8971 14.229 27.5544C14.2281 26.2293 14.7102 25.1337 15.6763 24.2708C16.6414 23.4068 17.8691 22.9739 19.3601 22.9747C20.8903 22.9747 22.3331 23.547 23.6072 24.6927C23.9253 24.978 24.2324 25.2996 24.5286 25.656L26.1672 27.5828C26.4507 27.971 26.7551 28.3063 27.0695 28.5889C27.9107 29.3445 28.8239 29.7226 29.595 29.7226C30.2512 29.7226 30.7989 29.5221 31.24 29.1193C31.6247 28.7529 31.8416 28.3145 31.8899 27.8069L31.8999 27.5846C31.8999 27.364 31.8689 27.1553 31.8052 26.9595C31.7004 26.6332 31.508 26.3396 31.2292 26.0781C30.7935 25.6625 30.2448 25.4574 29.5795 25.4574C28.7619 25.4574 27.9535 25.7326 27.0677 26.5911L25.6167 24.885L25.4399 24.6872C26.7087 23.444 27.9754 22.9774 29.6806 22.9774C31.1917 22.9774 32.4148 23.4067 33.3508 24.2635L33.3718 24.2807C34.3232 25.1356 34.7999 26.2411 34.7999 27.5974C34.7999 27.9327 34.7698 28.2535 34.7106 28.5588C34.5321 29.4766 34.0836 30.2585 33.3672 30.9065C32.6637 31.5546 31.8052 31.9602 30.7916 32.1214C30.4537 32.1752 30.0981 32.2025 29.7254 32.2025C28.1605 32.2016 26.7131 31.642 25.4682 30.5247C25.1319 30.2221 24.8102 29.8794 24.5049 29.4948L22.8662 27.5818C22.5892 27.1981 22.2893 26.8663 21.9776 26.5856C21.1382 25.8318 20.2132 25.4546 19.4203 25.4546C19.1742 25.4546 18.9436 25.4837 18.7285 25.5412C18.3712 25.6369 18.0586 25.8137 17.7889 26.0708C17.4589 26.3851 17.2521 26.747 17.17 27.1561C17.1427 27.2919 17.1281 27.4341 17.129 27.5809C17.129 28.1623 17.3386 28.6599 17.7579 29.0728L17.7898 29.1029C18.24 29.5148 18.7932 29.7199 19.4494 29.7199C20.2742 29.7199 21.0863 29.4429 21.9703 28.5771L23.414 30.2622L23.5735 30.4545C22.2556 31.7122 21.0024 32.1879 19.3628 32.187C17.8527 32.187 16.6205 31.7587 15.6644 30.9029Z" clip-rule="evenodd"/></g></svg>

<svg xmlns="http://www.w3.org/2000/svg" fill="none" aria-hidden="true" viewBox="0 0 48 48"><path fill="#4679A4" fill-rule="evenodd" d="M37.633 22.875c.012-.21.031-.419.031-.632 0-5.825-4.794-10.547-10.71-10.547a10.715 10.715 0 0 0-9.66 6.014 4.962 4.962 0 0 0-3.02-1.021c-2.728 0-4.94 2.178-4.94 4.865 0 .505.077.992.223 1.45C7.43 24.25 6 26.528 6 29.142c0 3.908 3.187 7.078 7.142 7.138l.084.005h21.297c.13.006.256.019.387.019 3.916 0 7.09-3.125 7.09-6.982 0-2.906-1.804-5.395-4.367-6.447Zm-21.969 8.028a4.193 4.193 0 0 1-1.346-2.37 5.226 5.226 0 0 1-.089-.979c0-1.325.481-2.42 1.447-3.283.965-.864 2.193-1.297 3.684-1.296 1.53 0 2.973.572 4.247 1.718.318.285.625.607.922.963l1.638 1.927c.284.388.588.723.902 1.006.842.756 1.755 1.134 2.526 1.134.656 0 1.204-.2 1.645-.604.385-.366.602-.805.65-1.312l.01-.222c0-.221-.031-.43-.095-.626a2.073 2.073 0 0 0-.576-.88c-.435-.416-.984-.622-1.65-.622-.817 0-1.626.276-2.511 1.134l-1.451-1.706-.177-.198c1.269-1.243 2.535-1.71 4.24-1.71 1.512 0 2.735.43 3.67 1.287l.022.017c.951.855 1.428 1.96 1.428 3.316 0 .336-.03.656-.09.962-.178.918-.626 1.7-1.343 2.348-.703.648-1.562 1.053-2.575 1.214a6.779 6.779 0 0 1-1.067.081c-1.565 0-3.012-.56-4.257-1.677a8.439 8.439 0 0 1-.963-1.03l-1.639-1.913a6.3 6.3 0 0 0-.888-.996c-.84-.754-1.765-1.131-2.558-1.131a2.7 2.7 0 0 0-.692.086c-.357.096-.67.273-.94.53a2.032 2.032 0 0 0-.659 1.51c0 .581.21 1.079.629 1.492l.032.03c.45.412 1.003.617 1.66.617.824 0 1.636-.277 2.52-1.143l1.444 1.685.16.192c-1.318 1.258-2.572 1.734-4.211 1.733-1.51 0-2.742-.428-3.699-1.284Z" clip-rule="evenodd"/></svg>
